public/static/icons/ic_doc.svg

<svg xmlns="http://www.w3.org/2000/svg" width="24" height="24" viewBox="0 0 24 24">
  <defs>
    <linearGradient id="ic_doc-a" x1="55.396%" x2="46.138%" y1="81.317%" y2="28.314%">
      <stop offset="0%" stop-color="#00AB55" stop-opacity="0"/>
      <stop offset="100%" stop-color="#005249"/>
    </linearGradient>
    <linearGradient id="ic_doc-b" x1="0%" x2="100%" y1=".736%" y2="99.264%">
      <stop offset="0%" stop-color="#5BE584"/>
      <stop offset="100%" stop-color="#00AB55"/>
    </linearGradient>
    <linearGradient id="ic_doc-c" x1="50%" x2="50%" y1="26.273%" y2="105.236%">
      <stop offset="0%" stop-color="#00AB55" stop-opacity="0"/>
      <stop offset="100%" stop-color="#005249"/>
    </linearGradient>
  </defs>
  <g fill="none" fill-rule="evenodd" transform="translate(3)">
    <path fill="#00AB55" fill-rule="nonzero" d="M0.008,1.50023529 L0.008,22.5002353 C0.008,23.3251294 0.682870588,24 1.50776471,24 L16.0917647,24 C16.9168941,24 17.592,23.3248941 17.592,22.4997647 L17.592,5.52447059 C17.592,5.06390588 17.4090353,4.62221176 17.0833882,4.29651765 L13.2954824,0.508611765 C12.9697882,0.182964706 12.5280941,0 12.0675294,0 L1.50823529,0 C0.683105882,0 0.008,0.675105882 0.008,1.50023529 Z"/>
    <path fill="#C8FACD" fill-rule="nonzero" d="M.475811765 1.93134118L10.0653647 1.93134118C10.3043765 1.93134118 10.4981176 1.7376 10.4981176 1.49858824L10.4981176.443294118C10.4981176.204282353 10.3043765.0105411765 10.0653647.0105411765L.475811765.0105411765C.2368.0105411765.0430588235.204282353.0430588235.443294118L.0430588235 1.49858824C.0430588235 1.7376.2368 1.93134118.475811765 1.93134118zM.475811765 4.92969412L10.0653647 4.92969412C10.3043765 4.92969412 10.4981176 4.73595294 10.4981176 4.49694118L10.4981176 3.44164706C10.4981176 3.20263529 10.3043765 3.00889412 10.0653647 3.00889412L.475811765 3.00889412C.2368 3.00889412.0430588235 3.20263529.0430588235 3.44164706L.0430588235 4.49694118C.0430588235 4.73595294.2368 4.92969412.475811765 4.92969412zM.475811765 7.928L10.0653647 7.928C10.3043765 7.928 10.4981176 7.73425882 10.4981176 7.49524706L10.4981176 6.44C10.4981176 6.20098824 10.3043765 6.00724706 10.0653647 6.00724706L.475811765 6.00724706C.2368 6.00724706.0430588235 6.20098824.0430588235 6.44L.0430588235 7.49529412C.0430588235 7.73425882.2368 7.928.475811765 7.928zM.356376471 10.9263529L5.21072941 10.9263529C5.38376471 10.9263529 5.52404706 10.7860706 5.52404706 10.6130353L5.52404706 9.31891765C5.52404706 9.14588235 5.38376471 9.0056 5.21072941 9.0056L.356376471 9.0056C.183341176 9.0056.0430588235 9.14588235.0430588235 9.31891765L.0430588235 10.6130353C.0430588235 10.7860706.183341176 10.9263529.356376471 10.9263529L.356376471 10.9263529z" transform="translate(3.53 9.647)"/>
    <path fill="url(#ic_doc-a)" fill-rule="nonzero" d="M13.2954353,0.508611765 C13.0723765,0.285552941 12.7948235,0.129505882 12.4941176,0.0532705882 L12.4941176,4.94371765 L17.592,10.0416 L17.592,5.52442353 C17.592,5.06385882 17.4090353,4.62216471 17.0833882,4.29647059 L13.2954353,0.508611765 Z"/>
    <path fill="url(#ic_doc-b)" d="M17.5405647,5.1032 C17.5461176,5.12729412 17.5512471,5.15077647 17.5559059,5.17341176 L12.9607059,5.17341176 C12.6353412,5.17341176 12.3715294,4.90964706 12.3715294,4.58423529 L12.3715294,0.0273411765 C12.4074353,0.0337411765 12.4451765,0.0412235294 12.4840941,0.0498352941 C12.8266353,0.1256 13.1389647,0.301741176 13.3870588,0.549788235 L17.0414118,4.20414118 C17.2885176,4.45124706 17.4620235,4.76272941 17.5405647,5.1032 L17.5405647,5.1032 Z"/>
    <path fill="url(#ic_doc-c)" fill-rule="nonzero" d="M17.584,20 L17.584,21.9693944 C17.584,23.0862275 16.9088941,24 16.0837647,24 L1.49976471,24 C0.674870588,24 0,23.0864823 0,21.9700314 L0,20 L17.584,20 Z"/>
  </g>
</svg>

<svg height="24" viewBox="0 0 24 24" width="24" xmlns="http://www.w3.org/2000/svg" xmlns:xlink="http://www.w3.org/1999/xlink"><linearGradient id="a"><stop offset="0" stop-color="#00ab55" stop-opacity="0"/><stop offset="1" stop-color="#005249"/></linearGradient><linearGradient id="b" x1="55.396%" x2="46.138%" xlink:href="#a" y1="81.317%" y2="28.314%"/><linearGradient id="c" x1="0%" x2="100%" y1=".736%" y2="99.264%"><stop offset="0" stop-color="#5be584"/><stop offset="1" stop-color="#00ab55"/></linearGradient><linearGradient id="d" x1="50%" x2="50%" xlink:href="#a" y1="26.273%" y2="105.236%"/><g fill="none" fill-rule="evenodd" transform="translate(3)"><g fill-rule="nonzero"><path d="m.008 1.50023529v21.00000001c0 .8248941.67487059 1.4997647 1.49976471 1.4997647h14.58399999c.8251294 0 1.5002353-.6751059 1.5002353-1.5002353v-16.97529411c0-.46056471-.1829647-.90225883-.5086118-1.22795294l-3.7879058-3.78790588c-.3256942-.32564706-.7673883-.50861177-1.227953-.50861177h-10.55929411c-.82512941 0-1.50023529.67510588-1.50023529 1.50023529z" fill="#00ab55"/><path d="m.47581177 1.93134118h9.58955293c.2390118 0 .4327529-.19374118.4327529-.43275294v-1.05529412c0-.23901177-.1937411-.43275294-.4327529-.43275294h-9.58955293c-.23901177 0-.43275295.19374117-.43275295.43275294v1.05529412c0 .23901176.19374118.43275294.43275295.43275294zm0 2.99835294h9.58955293c.2390118 0 .4327529-.19374118.4327529-.43275294v-1.05529412c0-.23901177-.1937411-.43275294-.4327529-.43275294h-9.58955293c-.23901177 0-.43275295.19374117-.43275295.43275294v1.05529412c0 .23901176.19374118.43275294.43275295.43275294zm0 2.99830588h9.58955293c.2390118 0 .4327529-.19374118.4327529-.43275294v-1.05524706c0-.23901176-.1937411-.43275294-.4327529-.43275294h-9.58955293c-.23901177 0-.43275295.19374118-.43275295.43275294v1.05529412c0 .2389647.19374118.43270588.43275295.43270588zm-.1194353 2.9983529h4.85435294c.1730353 0 .31331765-.1402823.31331765-.3133176v-1.29411765c0-.1730353-.14028235-.31331765-.31331765-.31331765h-4.85435294c-.17303529 0-.31331765.14028235-.31331765.31331765v1.29411765c0 .1730353.14028236.3133176.31331765.3133176z" fill="#c8facd" transform="translate(3.53 9.647)"/><path d="m13.2954353.50861177c-.2230588-.22305883-.5006118-.37910589-.8013177-.45534118v4.89044706l5.0978824 5.09788235v-4.51717647c0-.46056471-.1829647-.90225882-.5086118-1.22795294z" fill="url(#b)"/></g><path d="m17.5405647 5.1032c.0055529.02409412.0106824.04757647.0153412.07021176h-4.5952c-.3253647 0-.5891765-.2637647-.5891765-.58917647v-4.55689411c.0359059.0064.0736471.01388235.1125647.02249411.3425412.07576471.6548706.25190589.9029647.49995294l3.654353 3.65435295c.2471058.24710588.4206117.55858823.4991529.89905882z" fill="url(#c)"/><path d="m17.584 20v1.9693944c0 1.1168331-.6751059 2.0306056-1.5002353 2.0306056h-14.58399999c-.82489412 0-1.49976471-.9135177-1.49976471-2.0299686v-1.9700314z" fill="url(#d)" fill-rule="nonzero"/></g></svg>
